dist/svg/u1F1E8.svg

<svg id="Layer_1" data-name="Layer 1" xmlns="http://www.w3.org/2000/svg" viewBox="0 0 40 40"><defs><style>.cls-1{fill:#afb7c0;}.cls-2{fill:none;}</style></defs><path class="cls-1" d="M28.5,7.1a4.405,4.405,0,0,1,4.4,4.4v17a4.405,4.405,0,0,1-4.4,4.4h-17a4.405,4.405,0,0,1-4.4-4.4v-17a4.405,4.405,0,0,1,4.4-4.4h17m0-3.6h-17a8,8,0,0,0-8,8v17a8,8,0,0,0,8,8h17a8,8,0,0,0,8-8v-17a8,8,0,0,0-8-8Z"/><path class="cls-1" d="M20.361,10.743c4.153,0,7.585,2.208,8.328,6.553H24.706a4.05,4.05,0,0,0-4.345-3.313c-2.688,0-5.089,1.537-5.089,6.1,0,4.512,2.4,6.048,5.089,6.048a4.049,4.049,0,0,0,4.345-3.312h3.983c-.743,4.369-4.175,6.553-8.328,6.553-4.776,0-9.049-3.12-9.049-9.289C11.312,13.863,15.585,10.743,20.361,10.743Z"/><rect class="cls-2" width="40" height="40"/></svg>

<?xml version="1.0" encoding="UTF-8"?><svg id="a" xmlns="http://www.w3.org/2000/svg" viewBox="0 0 40 40"><g><path d="M28.5,3.5H11.5C7.082,3.5,3.5,7.082,3.5,11.5V28.5c0,4.418,3.582,8,8,8H28.5c4.418,0,8-3.582,8-8V11.5c0-4.418-3.582-8-8-8Zm4.4,25c0,2.426-1.974,4.4-4.4,4.4H11.5c-2.426,0-4.4-1.974-4.4-4.4V11.5c0-2.426,1.974-4.4,4.4-4.4H28.5c2.426,0,4.4,1.974,4.4,4.4V28.5Z" fill="#afb7c0"/><path d="M20.361,13.983c2.136,0,3.72,.912,4.345,3.312h3.983c-.743-4.345-4.176-6.553-8.328-6.553-4.776,0-9.049,3.12-9.049,9.337,0,6.168,4.272,9.289,9.049,9.289,4.152,0,7.585-2.184,8.328-6.552h-3.983c-.625,2.4-2.209,3.312-4.345,3.312-2.688,0-5.089-1.536-5.089-6.048,0-4.561,2.4-6.097,5.089-6.097Z" fill="#afb7c0"/></g><rect width="40" height="40" fill="none"/></svg>
